icons/desktop/20/content-width-20.svg

<svg width="20" height="20" viewBox="0 0 20 20" fill="none" xmlns="http://www.w3.org/2000/svg">
<path d="M0.875 2C1.35825 2 1.75 2.39175 1.75 2.875V17.125C1.75 17.6082 1.35825 18 0.875 18C0.391751 18 0 17.6082 0 17.125V2.875C0 2.39175 0.391751 2 0.875 2Z" fill="black"/>
<path d="M19.125 2C19.6082 2 20 2.39175 20 2.875V17.125C20 17.6082 19.6082 18 19.125 18C18.6418 18 18.25 17.6082 18.25 17.125V2.875C18.25 2.39175 18.6418 2 19.125 2Z" fill="black"/>
<path d="M12.7842 7.5332C12.7842 6.8652 13.5925 6.53093 14.0645 7.00293L16.5303 9.46875C16.8233 9.76175 16.8233 10.2373 16.5303 10.5303L14.0645 12.9961C13.5925 13.4691 12.7842 13.1338 12.7842 12.4658V10.875H7.20996V12.4658C7.20996 13.1338 6.40169 13.4691 5.92969 12.9961L3.46387 10.5303C3.17087 10.2373 3.17087 9.76175 3.46387 9.46875L5.92969 7.00293C6.40169 6.53093 7.20996 6.8652 7.20996 7.5332V9.125H12.7842V7.5332Z" fill="black"/>
</svg>

<!-- This Source Code Form is subject to the terms of the Mozilla Public
   - License, v. 2.0. If a copy of the MPL was not distributed with this
   - file, You can obtain one at http://mozilla.org/MPL/2.0/. -->
<svg xmlns="http://www.w3.org/2000/svg" width="20" height="20" fill="context-fill" fill-opacity="context-fill-opacity" viewBox="0 0 20 20">
    <path d="M.875 2c.483 0 .875.392.875.875v14.25a.875.875 0 0 1-1.75 0V2.875C0 2.392.392 2 .875 2M19.125 2c.483 0 .875.392.875.875v14.25a.875.875 0 0 1-1.75 0V2.875c0-.483.392-.875.875-.875M12.784 7.533a.75.75 0 0 1 1.28-.53l2.466 2.466a.75.75 0 0 1 0 1.061l-2.466 2.466a.75.75 0 0 1-1.28-.53v-1.591H7.21v1.59a.75.75 0 0 1-1.28.531L3.464 10.53a.75.75 0 0 1 0-1.061L5.93 7.003a.75.75 0 0 1 1.28.53v1.592h5.574z" />
</svg>
